X:189
T:Tommy's Chance. JJo8.189
B:J.Johnson Choice Collection Vol 8 1758
Z:vmp.Simon Wilson 2013 www.village-music-project.org.uk
M:6/8
L:1/8
Q:3/8=120
K:G
|:gdBG3|gdBG3|gfe dcB|cBAG3|DFAd3|DFAd3|d^cB AGF|GFED3:|
|:dfa afd|afdTB3|agf edc|Tc3B3|dBG ecA|fdfTg3|ege faf|Tg3G3:|

